Adwaita++-Dark/actions/22/lensdistortion.svg

<svg height="22" viewBox="0 0 22 22" width="22" xmlns="http://www.w3.org/2000/svg">
  <path d="m0 0v3.8886719 1.1210937 2.9902344 2.990234 1.009766.111328 3.888672h16v-3.892578-.107422-1.009766-2.990234-2.9902344-1.1171875-3.8925781zm1 1h14v2.3867188a11 6 0 0 0 -7-1.3867188 11 6 0 0 0 -7 1.3808594zm7 2a10 5 0 0 1 7 1.4414062v2.1074219a8 3 0 0 0 -7-1.5488281 8 3 0 0 0 -7 1.5546875v-2.109375a10 5 0 0 1 7-1.4453125zm0 3a7 2 0 0 1 7 2 7 2 0 0 1 -7 2 7 2 0 0 1 -7-2 7 2 0 0 1 7-2zm7 3.4453125v2.1132815a10 5 0 0 1 -7 1.441406 10 5 0 0 1 -7-1.445312v-2.1035161a8 3 0 0 0 7 1.5488281 8 3 0 0 0 7-1.5546875zm0 3.1679685v2.386719h-14v-2.380859a11 6 0 0 0 7 1.380859 11 6 0 0 0 7-1.386719z" fill="#e6ddff" transform="translate(3 3)"/>
</svg>

<svg xmlns="http://www.w3.org/2000/svg" width="22" height="22" viewBox="0 0 22 22">
 <defs>
  <style id="current-color-scheme" type="text/css">
   .ColorScheme-Text { color:#E6DDFF; } .ColorScheme-Highlight { color:#4285f4; }
  </style>
 </defs>
 <path style="fill:currentColor" class="ColorScheme-Text" d="M 0 0 L 0 3.8886719 L 0 5.0097656 L 0 8 L 0 10.990234 L 0 12 L 0 12.111328 L 0 16 L 16 16 L 16 12.107422 L 16 12 L 16 10.990234 L 16 8 L 16 5.0097656 L 16 3.8925781 L 16 0 L 0 0 z M 1 1 L 15 1 L 15 3.3867188 A 11 6 0 0 0 8 2 A 11 6 0 0 0 1 3.3808594 L 1 1 z M 8 3 A 10 5 0 0 1 15 4.4414062 L 15 6.5488281 A 8 3 0 0 0 8 5 A 8 3 0 0 0 1 6.5546875 L 1 4.4453125 A 10 5 0 0 1 8 3 z M 8 6 A 7 2 0 0 1 15 8 A 7 2 0 0 1 8 10 A 7 2 0 0 1 1 8 A 7 2 0 0 1 8 6 z M 15 9.4453125 L 15 11.558594 A 10 5 0 0 1 8 13 A 10 5 0 0 1 1 11.554688 L 1 9.4511719 A 8 3 0 0 0 8 11 A 8 3 0 0 0 15 9.4453125 z M 15 12.613281 L 15 15 L 1 15 L 1 12.619141 A 11 6 0 0 0 8 14 A 11 6 0 0 0 15 12.613281 z" transform="translate(3 3)"/>
</svg>
